X:242
L:1/8
M:4/4
K:G
|: B3 e dBAB | GABc d2 ef | g2 ef gded | BAAG Aedc | B3 e dBAB | GABc d>gef | g2 ef gded |1 
 BGGF Gedc :|2 BGGF GBga |: b3 g a3 f | g3 e d>gef | g2 ef gded | BAAG ABga | b3 g a3 f | 
 g3 e d>gef | g2 ef gded |1 BGGF GBga :|

